X:850
L:1/8
Q:1/4=115
M:4/4
K:F#
"F#" A3 G F3 E |"B" D2 F2"F#" D2 C2 | F2 A2 c3 A |"C#" G2"G#7" F2"C#" G3 z |"F#" A3 G F3 E | 
"B" D2 F2"F#" D2 C2 | F2 A2"B" D3 G |"F#/C#" F2"C#" E2"F#" F3 z ||"F#" A2 c2 c3 A | 
"C#" G2"^(D#m)" F2"^(F#/C#)" A2"^(C#)" G2 |"F#" A2 c2 c3 A |"C#" G2"G#7" F2"C#" G3 z | 
"F#" A3 G F3 C |"B" B3 D"F#" D2 C2 | F2 A2"B" D3 G |"F#/C#" F2"C#" E2"F#" F3 z |]

